src/assets/icons/guarantee-icon.svg

<svg width="24" height="24" viewBox="0 0 24 24" fill="none" xmlns="http://www.w3.org/2000/svg">
<path fill-rule="evenodd" clip-rule="evenodd" d="M11.5568 1.08893C11.6968 1.03023 11.8476 0.999962 12 0.999962C12.1524 0.999962 12.3032 1.03023 12.4432 1.08893L19.6365 4.1038C20.0413 4.27347 20.3863 4.55557 20.6287 4.91513C20.8711 5.2747 21.0002 5.69591 21 6.12654V13.6719C20.9999 15.0292 20.6328 16.3622 19.936 17.536C19.2392 18.7099 18.2374 19.6828 17.0321 20.3561L12.558 22.8551C12.3881 22.95 12.1957 23 12 23C11.8043 23 11.6119 22.95 11.442 22.8551L6.96788 20.3561C5.76229 19.6826 4.76028 18.7093 4.06345 17.5351C3.36662 16.3608 2.99974 15.0273 3 13.6697V6.12654C3.00005 5.6961 3.12926 5.27512 3.37162 4.91578C3.61399 4.55643 3.95885 4.27449 4.3635 4.1049L11.5568 1.08893ZM16.1704 10.5779C16.3753 10.3704 16.4887 10.0926 16.4861 9.80421C16.4836 9.51582 16.3653 9.23994 16.1567 9.03601C15.9481 8.83208 15.6659 8.7164 15.371 8.7139C15.076 8.71139 14.7918 8.82225 14.5796 9.02261L10.875 12.6446L9.42037 11.2224C9.2082 11.0221 8.92402 10.9112 8.62905 10.9137C8.33408 10.9162 8.05191 11.0319 7.84333 11.2358C7.63475 11.4398 7.51643 11.7156 7.51387 12.004C7.5113 12.2924 7.6247 12.5703 7.82963 12.7777L10.0796 14.9775C10.2906 15.1837 10.5767 15.2996 10.875 15.2996C11.1733 15.2996 11.4594 15.1837 11.6704 14.9775L16.1704 10.5779Z" fill="#0071DC"/>
</svg>

<svg xmlns="http://www.w3.org/2000/svg" width="24" height="24" fill="none"><path fill="#0071DC" fill-rule="evenodd" d="M11.557 1.089a1.15 1.15 0 0 1 .886 0l7.194 3.015c.404.17.75.452.992.811s.371.78.371 1.212v7.545c0 1.357-.367 2.69-1.064 3.864a7.8 7.8 0 0 1-2.904 2.82l-4.474 2.5a1.15 1.15 0 0 1-1.116 0l-4.474-2.5a7.8 7.8 0 0 1-2.905-2.82A7.57 7.57 0 0 1 3 13.67V6.127c0-.43.13-.852.372-1.211s.587-.642.992-.811zm4.613 9.489c.205-.208.319-.485.316-.774a1.09 1.09 0 0 0-.33-.768 1.139 1.139 0 0 0-1.577-.013l-3.704 3.622-1.455-1.423a1.14 1.14 0 0 0-1.577.014c-.208.204-.327.48-.33.768-.002.288.112.566.317.774l2.25 2.2a1.138 1.138 0 0 0 1.59 0z" clip-rule="evenodd"/></svg>
